X:5056
T:Distillery Hill
M:6/8
R:Jig
L:1/8
Q:180
C:Aidan Crossey
K:G
|: c2D cBA|B2D BAG|A2D ABc|ded dcB|
c2D cBA|B2D BAG|A2D DFA|G3 G2A:||
|:B2D EFG|B2D EFG|cBA ABc|cde dcB|
B2D EFG|B2D EFG|A2D DFA|1 G3 G2A:||2 G3 G3|
